(Header)
(Generated by gcodetools from Inkscape.)
(Using default header. To add your own header create file "header" in the output dir.)
M649 S100 L10 P5
(Header end.)
G21 (All units in mm)
G28
(Start82)
G00 X104.403935 Y25.419684
G01 X103.664775 Y25.419684
G02 X102.372618 Y24.729009 I-1.784501 J1.784493
G02 X100.914510 Y24.872619 I-0.492344 J2.475168
G02 X99.781925 Y25.802110 I0.965763 J2.331557
G02 X99.356614 Y27.204184 I2.098349 J1.402067
G02 X99.781925 Y28.606258 I2.523660 J0.000007
G02 X100.914510 Y29.535748 I2.098349 J-1.402067
G02 X102.372618 Y29.679359 I0.965763 J-2.331557
G02 X103.664775 Y28.988684 I-0.492344 J-2.475168
G01 X104.403935 Y28.988684
G03 X102.544293 Y36.887238 I-25.175216 J-1.759076
G03 X98.274136 Y43.787324 I-23.315575 J-9.657630
G01 X97.751469 Y43.264653
G02 X97.326152 Y41.862586 I-2.523660 J0.000007
G02 X96.193568 Y40.933102 I-2.098343 J1.402075
G02 X94.735465 Y40.789492 I-0.965760 J2.331559
G02 X93.443312 Y41.480164 I0.492343 J2.475168
G02 X92.752646 Y42.772317 I1.784504 J1.784490
G02 X92.896259 Y44.230418 I2.475169 J0.492336
G02 X93.825743 Y45.362998 I2.331557 J-0.965764
G02 X95.227809 Y45.788313 I1.402073 J-2.098345
G01 X95.750476 Y46.310983
G03 X88.850389 Y50.581141 I-16.557714 J-19.045418
G03 X80.951833 Y52.440781 I-9.657627 J-23.315576
G01 X80.951833 Y51.701621
G02 X81.642507 Y50.409465 I-1.784494 J-1.784500
G02 X81.498897 Y48.951359 I-2.475168 J-0.492344
G02 X80.569409 Y47.818774 I-2.331558 J0.965762
G02 X79.167336 Y47.393462 I-1.402069 J2.098347
G02 X77.765264 Y47.818774 I-0.000003 J2.523660
G02 X76.835775 Y48.951359 I1.402069 J2.098347
G02 X76.692165 Y50.409465 I2.331558 J0.965762
G02 X77.382839 Y51.701621 I2.475168 J-0.492344
G01 X77.382839 Y52.440781
G03 X69.484283 Y50.581141 I1.759071 J-25.175216
G03 X62.584196 Y46.310983 I9.657627 J-23.315576
G01 X63.106864 Y45.788313
G02 X64.508929 Y45.362998 I-0.000007 J-2.523660
G02 X65.438414 Y44.230418 I-1.402073 J-2.098345
G02 X65.582026 Y42.772317 I-2.331557 J-0.965764
G02 X64.891361 Y41.480164 I-2.475169 J0.492336
G02 X63.599207 Y40.789492 I-1.784497 J1.784497
G02 X62.141104 Y40.933102 I-0.492343 J2.475168
G02 X61.008520 Y41.862586 I0.965760 J2.331559
G02 X60.583204 Y43.264653 I2.098343 J1.402075
G01 X60.060537 Y43.787324
G03 X55.790379 Y36.887238 I19.045418 J-16.557714
G03 X53.930739 Y28.988684 I23.315575 J-9.657629
G01 X54.669902 Y28.988684
G02 X55.962058 Y29.679355 I1.784497 J-1.784497
G02 X57.420163 Y29.535744 I0.492341 J-2.475168
G02 X58.552746 Y28.606255 I-0.965764 J-2.331557
G02 X58.978058 Y27.204184 I-2.098348 J-1.402068
G02 X58.552746 Y25.802112 I-2.523660 J-0.000003
G02 X57.420163 Y24.872624 I-2.098348 J1.402068
G02 X55.962058 Y24.729012 I-0.965764 J2.331557
G02 X54.669902 Y25.419684 I0.492341 J2.475168
G01 X53.930739 Y25.419684
G03 X55.790379 Y17.521130 I25.175216 J1.759074
G03 X60.060537 Y10.621044 I23.315575 J9.657629
G01 X60.583204 Y11.143714
G02 X61.008520 Y12.545782 I2.523660 J-0.000007
G02 X62.141104 Y13.475266 I2.098343 J-1.402075
G02 X63.599207 Y13.618875 I0.965760 J-2.331559
G02 X64.891361 Y12.928204 I-0.492343 J-2.475168
G02 X65.582026 Y11.636050 I-1.784504 J-1.784490
G02 X65.438414 Y10.177950 I-2.475169 J-0.492336
G02 X64.508929 Y9.045369 I-2.331557 J0.965764
G02 X63.106864 Y8.620054 I-1.402073 J2.098345
G01 X62.584196 Y8.097384
G03 X69.484283 Y3.827227 I16.557714 J19.045418
G03 X77.382839 Y1.967586 I9.657627 J23.315576
G01 X77.382839 Y2.706746
G02 X76.692165 Y3.998902 I1.784494 J1.784500
G02 X76.835775 Y5.457008 I2.475168 J0.492344
G02 X77.765264 Y6.589593 I2.331558 J-0.965762
G02 X79.167336 Y7.014906 I1.402069 J-2.098347
G02 X80.569409 Y6.589593 I0.000003 J-2.523660
G02 X81.498897 Y5.457008 I-1.402069 J-2.098347
G02 X81.642507 Y3.998902 I-2.331558 J-0.965762
G02 X80.951833 Y2.706746 I-2.475168 J0.492344
G01 X80.951833 Y1.967586
G03 X88.850389 Y3.827227 I-1.759071 J25.175216
G03 X95.750476 Y8.097384 I-9.657627 J23.315576
G01 X95.227809 Y8.620054
G02 X93.825743 Y9.045369 I0.000007 J2.523660
G02 X92.896259 Y10.177950 I1.402073 J2.098345
G02 X92.752646 Y11.636050 I2.331557 J0.965764
G02 X93.443312 Y12.928204 I2.475169 J-0.492336
G02 X94.735465 Y13.618875 I1.784497 J-1.784497
G02 X96.193568 Y13.475266 I0.492343 J-2.475168
G02 X97.326152 Y12.545782 I-0.965760 J-2.331559
G02 X97.751469 Y11.143714 I-2.098343 J-1.402075
G01 X98.274136 Y10.621044
G03 X102.544293 Y17.521129 I-19.045417 J16.557715
G03 X104.403935 Y25.419684 I-23.315575 J9.657630
G01 X104.403935 Y25.419684
(End82)
(Start22)
G00 X105.350317 Y30.737307
G01 X106.927604 Y30.737307
G01 X106.927604 Y28.718380
G01 X110.965460 Y28.718380
G01 X110.965460 Y30.737307
G01 X112.542747 Y30.737307
G01 X112.542747 Y39.822483
G01 X110.965460 Y39.822483
G01 X110.965460 Y41.841410
G01 X106.927604 Y41.841410
G01 X106.927604 Y39.822483
G01 X105.350317 Y39.822483
G01 X105.350317 Y30.737307
G01 X105.350317 Y30.737307
(End22)
(Start18)
G00 X109.451264 Y43.797247
G01 X109.451264 Y45.374534
G01 X111.470192 Y45.374534
G01 X111.470192 Y49.412390
G01 X109.451264 Y49.412390
G01 X109.451264 Y50.989677
G01 X100.366089 Y50.989677
G01 X100.366089 Y49.412390
G01 X98.347161 Y49.412390
G01 X98.347161 Y45.374534
G01 X100.366089 Y45.374534
G01 X100.366089 Y43.797247
G01 X109.451264 Y43.797247
G01 X109.451264 Y43.797247
(End18)
(Start68)
G00 X88.803619 Y33.985268
G01 X85.948424 Y36.840466
G01 X84.520827 Y35.412872
G01 X87.376022 Y32.557674
G01 X88.803619 Y33.985268
G01 X88.803619 Y33.985268
(End68)
(Startcircle64)
G00 X86.738315 Y27.204184
G02 X86.162009 Y24.306896 I-7.570979 J-0.000000
G02 X84.520827 Y21.850693 I-6.994673 J2.897288
G02 X82.064625 Y20.209511 I-5.353491 J5.353491
G02 X79.167336 Y19.633205 I-2.897288 J6.994673
G02 X76.270048 Y20.209511 I-0.000000 J7.570979
G02 X73.813845 Y21.850693 I2.897288 J6.994673
G02 X72.172663 Y24.306896 I5.353491 J5.353491
G02 X71.596357 Y27.204184 I6.994673 J2.897288
G02 X72.172663 Y30.101472 I7.570979 J-0.000000
G02 X73.813845 Y32.557675 I6.994673 J-2.897288
G02 X76.270048 Y34.198857 I5.353491 J-5.353491
G02 X79.167336 Y34.775163 I2.897288 J-6.994673
G02 X82.064625 Y34.198857 I-0.000000 J-7.570979
G02 X84.520827 Y32.557675 I-2.897288 J-6.994673
G02 X86.162009 Y30.101472 I-5.353491 J-5.353491
G02 X86.738315 Y27.204184 I-6.994673 J-2.897288
G01 X86.738315 Y27.204184
(Endcircle64)
(Start66)
G00 X90.776171 Y25.185256
G01 X90.776171 Y29.223112
G01 X88.757243 Y29.223112
G01 X88.757243 Y25.185256
G01 X90.776171 Y25.185256
G01 X90.776171 Y25.185256
(End66)
(Start14)
G00 X83.709924 Y23.607969
G01 X83.709924 Y25.185256
G01 X85.728852 Y25.185256
G01 X85.728852 Y29.223112
G01 X83.709924 Y29.223112
G01 X83.709924 Y30.800399
G01 X74.624749 Y30.800399
G01 X74.624749 Y29.223112
G01 X72.605821 Y29.223112
G01 X72.605821 Y25.185256
G01 X74.624749 Y25.185256
G01 X74.624749 Y23.607969
G01 X83.709924 Y23.607969
G01 X83.709924 Y23.607969
(End14)
(Start80)
G00 X85.948424 Y17.567902
G01 X88.803619 Y20.423100
G01 X87.376022 Y21.850694
G01 X84.520827 Y18.995496
G01 X85.948424 Y17.567902
G01 X85.948424 Y17.567902
(End80)
(Start78)
G00 X77.148408 Y15.595349
G01 X81.186264 Y15.595349
G01 X81.186264 Y17.614277
G01 X77.148408 Y17.614277
G01 X77.148408 Y15.595349
G01 X77.148408 Y15.595349
(End78)
(Start76)
G00 X69.531052 Y20.423100
G01 X72.386248 Y17.567902
G01 X73.813845 Y18.995496
G01 X70.958650 Y21.850694
G01 X69.531052 Y20.423100
G01 X69.531052 Y20.423100
(End76)
(Start74)
G00 X67.558501 Y29.223112
G01 X67.558501 Y25.185256
G01 X69.577429 Y25.185256
G01 X69.577429 Y29.223112
G01 X67.558501 Y29.223112
G01 X67.558501 Y29.223112
(End74)
(Start72)
G00 X72.386248 Y36.840466
G01 X69.531052 Y33.985268
G01 X70.958650 Y32.557674
G01 X73.813845 Y35.412872
G01 X72.386248 Y36.840466
G01 X72.386248 Y36.840466
(End72)
(Start70)
G00 X81.186264 Y38.813019
G01 X77.148408 Y38.813019
G01 X77.148408 Y36.794091
G01 X81.186264 Y36.794091
G01 X81.186264 Y38.813019
G01 X81.186264 Y38.813019
(End70)
(Start10)
G00 X57.968594 Y43.797247
G01 X57.968594 Y45.374534
G01 X59.987522 Y45.374534
G01 X59.987522 Y49.412390
G01 X57.968594 Y49.412390
G01 X57.968594 Y50.989677
G01 X48.883419 Y50.989677
G01 X48.883419 Y49.412390
G01 X46.864492 Y49.412390
G01 X46.864492 Y45.374534
G01 X48.883419 Y45.374534
G01 X48.883419 Y43.797247
G01 X57.968594 Y43.797247
G01 X57.968594 Y43.797247
(End10)
(Start60)
G00 X52.921280 Y25.419684
G01 X52.182117 Y25.419684
G02 X50.889961 Y24.729012 I-1.784497 J1.784497
G02 X49.431856 Y24.872624 I-0.492341 J2.475168
G02 X48.299273 Y25.802112 I0.965764 J2.331557
G02 X47.873960 Y27.204184 I2.098348 J1.402068
G02 X48.299273 Y28.606255 I2.523660 J0.000003
G02 X49.431856 Y29.535744 I2.098348 J-1.402068
G02 X50.889961 Y29.679355 I0.965764 J-2.331557
G02 X52.182117 Y28.988684 I-0.492341 J-2.475168
G01 X52.921280 Y28.988684
G03 X51.061639 Y36.887238 I-25.175216 J-1.759074
G03 X46.791482 Y43.787324 I-23.315575 J-9.657629
G01 X46.268815 Y43.264653
G02 X45.843499 Y41.862586 I-2.523660 J0.000007
G02 X44.710915 Y40.933102 I-2.098343 J1.402075
G02 X43.252812 Y40.789492 I-0.965760 J2.331559
G02 X41.960658 Y41.480164 I0.492343 J2.475168
G02 X41.269993 Y42.772317 I1.784504 J1.784490
G02 X41.413605 Y44.230418 I2.475169 J0.492336
G02 X42.343090 Y45.362998 I2.331557 J-0.965764
G02 X43.745155 Y45.788313 I1.402073 J-2.098345
G01 X44.267822 Y46.310983
G03 X37.367735 Y50.581141 I-16.557714 J-19.045418
G03 X29.469180 Y52.440781 I-9.657627 J-23.315576
G01 X29.469180 Y51.701621
G02 X30.159854 Y50.409465 I-1.784494 J-1.784500
G02 X30.016244 Y48.951359 I-2.475168 J-0.492344
G02 X29.086755 Y47.818774 I-2.331558 J0.965762
G02 X27.684683 Y47.393462 I-1.402069 J2.098347
G02 X26.282610 Y47.818774 I-0.000003 J2.523660
G02 X25.353122 Y48.951359 I1.402069 J2.098347
G02 X25.209512 Y50.409465 I2.331558 J0.965762
G02 X25.900186 Y51.701621 I2.475168 J-0.492344
G01 X25.900186 Y52.440781
G03 X18.001630 Y50.581141 I1.759071 J-25.175216
G03 X11.101543 Y46.310983 I9.657627 J-23.315576
G01 X11.624210 Y45.788313
G02 X13.026275 Y45.362998 I-0.000007 J-2.523660
G02 X13.955760 Y44.230418 I-1.402073 J-2.098345
G02 X14.099372 Y42.772317 I-2.331557 J-0.965764
G02 X13.408707 Y41.480164 I-2.475169 J0.492336
G02 X12.116553 Y40.789492 I-1.784497 J1.784497
G02 X10.658450 Y40.933102 I-0.492343 J2.475168
G02 X9.525866 Y41.862586 I0.965760 J2.331559
G02 X9.100550 Y43.264653 I2.098343 J1.402075
G01 X8.577883 Y43.787324
G03 X4.307726 Y36.887238 I19.045418 J-16.557714
G03 X2.448085 Y28.988684 I23.315575 J-9.657629
G01 X3.187248 Y28.988684
G02 X4.479404 Y29.679355 I1.784497 J-1.784497
G02 X5.937509 Y29.535744 I0.492341 J-2.475168
G02 X7.070093 Y28.606255 I-0.965764 J-2.331557
G02 X7.495405 Y27.204184 I-2.098348 J-1.402068
G02 X7.070093 Y25.802112 I-2.523660 J-0.000003
G02 X5.937509 Y24.872624 I-2.098348 J1.402068
G02 X4.479404 Y24.729012 I-0.965764 J2.331557
G02 X3.187248 Y25.419684 I0.492341 J2.475168
G01 X2.448085 Y25.419684
G03 X4.307726 Y17.521130 I25.175216 J1.759074
G03 X8.577883 Y10.621044 I23.315575 J9.657629
G01 X9.100550 Y11.143714
G02 X9.525866 Y12.545782 I2.523660 J-0.000007
G02 X10.658450 Y13.475266 I2.098343 J-1.402075
G02 X12.116553 Y13.618875 I0.965760 J-2.331559
G02 X13.408707 Y12.928204 I-0.492343 J-2.475168
G02 X14.099372 Y11.636050 I-1.784504 J-1.784490
G02 X13.955760 Y10.177950 I-2.475169 J-0.492336
G02 X13.026275 Y9.045369 I-2.331557 J0.965764
G02 X11.624210 Y8.620054 I-1.402073 J2.098345
G01 X11.101543 Y8.097384
G03 X18.001630 Y3.827227 I16.557714 J19.045418
G03 X25.900186 Y1.967586 I9.657627 J23.315576
G01 X25.900186 Y2.706746
G02 X25.209512 Y3.998902 I1.784494 J1.784500
G02 X25.353122 Y5.457008 I2.475168 J0.492344
G02 X26.282610 Y6.589593 I2.331558 J-0.965762
G02 X27.684683 Y7.014906 I1.402069 J-2.098347
G02 X29.086755 Y6.589593 I0.000003 J-2.523660
G02 X30.016244 Y5.457008 I-1.402069 J-2.098347
G02 X30.159854 Y3.998902 I-2.331558 J-0.965762
G02 X29.469180 Y2.706746 I-2.475168 J0.492344
G01 X29.469180 Y1.967586
G03 X37.367735 Y3.827227 I-1.759071 J25.175216
G03 X44.267822 Y8.097384 I-9.657627 J23.315576
G01 X43.745155 Y8.620054
G02 X42.343090 Y9.045369 I0.000007 J2.523660
G02 X41.413605 Y10.177950 I1.402073 J2.098345
G02 X41.269993 Y11.636050 I2.331557 J0.965764
G02 X41.960658 Y12.928204 I2.475169 J-0.492336
G02 X43.252812 Y13.618875 I1.784497 J-1.784497
G02 X44.710915 Y13.475266 I0.492343 J-2.475168
G02 X45.843499 Y12.545782 I-0.965760 J-2.331559
G02 X46.268815 Y11.143714 I-2.098343 J-1.402075
G01 X46.791482 Y10.621044
G03 X51.061639 Y17.521130 I-19.045418 J16.557714
G03 X52.921280 Y25.419684 I-23.315575 J9.657629
G01 X52.921280 Y25.419684
(End60)
(Start44)
G00 X39.293517 Y25.185256
G01 X39.293517 Y29.223112
G01 X37.274590 Y29.223112
G01 X37.274590 Y25.185256
G01 X39.293517 Y25.185256
G01 X39.293517 Y25.185256
(End44)
(Startcircle42)
G00 X35.255662 Y27.204184
G02 X34.679355 Y24.306896 I-7.570979 J0.000000
G02 X33.038173 Y21.850693 I-6.994673 J2.897288
G02 X30.581971 Y20.209511 I-5.353491 J5.353491
G02 X27.684683 Y19.633205 I-2.897288 J6.994673
G02 X24.787394 Y20.209511 I0.000000 J7.570979
G02 X22.331192 Y21.850693 I2.897288 J6.994673
G02 X20.690010 Y24.306896 I5.353491 J5.353491
G02 X20.113703 Y27.204184 I6.994673 J2.897288
G02 X20.690010 Y30.101472 I7.570979 J-0.000000
G02 X22.331192 Y32.557675 I6.994673 J-2.897288
G02 X24.787394 Y34.198857 I5.353491 J-5.353491
G02 X27.684683 Y34.775163 I2.897288 J-6.994673
G02 X30.581971 Y34.198857 I-0.000000 J-7.570979
G02 X33.038173 Y32.557675 I-2.897288 J-6.994673
G02 X34.679355 Y30.101472 I-5.353491 J-5.353491
G02 X35.255662 Y27.204184 I-6.994673 J-2.897288
G01 X35.255662 Y27.204184
(Endcircle42)
(Start38)
G00 X32.227270 Y23.607969
G01 X32.227270 Y25.185256
G01 X34.246198 Y25.185256
G01 X34.246198 Y29.223112
G01 X32.227270 Y29.223112
G01 X32.227270 Y30.800399
G01 X23.142095 Y30.800399
G01 X23.142095 Y29.223112
G01 X21.123167 Y29.223112
G01 X21.123167 Y25.185256
G01 X23.142095 Y25.185256
G01 X23.142095 Y23.607969
G01 X32.227270 Y23.607969
G01 X32.227270 Y23.607969
(End38)
(Start58)
G00 X34.465770 Y17.567902
G01 X37.320965 Y20.423100
G01 X35.893368 Y21.850694
G01 X33.038173 Y18.995496
G01 X34.465770 Y17.567902
G01 X34.465770 Y17.567902
(End58)
(Start56)
G00 X25.665755 Y15.595349
G01 X29.703610 Y15.595349
G01 X29.703610 Y17.614277
G01 X25.665755 Y17.614277
G01 X25.665755 Y15.595349
G01 X25.665755 Y15.595349
(End56)
(Start54)
G00 X18.048400 Y20.423100
G01 X20.903595 Y17.567902
G01 X22.331192 Y18.995496
G01 X19.475997 Y21.850694
G01 X18.048400 Y20.423100
G01 X18.048400 Y20.423100
(End54)
(Start52)
G00 X16.075848 Y29.223112
G01 X16.075848 Y25.185256
G01 X18.094776 Y25.185256
G01 X18.094776 Y29.223112
G01 X16.075848 Y29.223112
G01 X16.075848 Y29.223112
(End52)
(Start50)
G00 X20.903595 Y36.840466
G01 X18.048400 Y33.985268
G01 X19.475997 Y32.557674
G01 X22.331192 Y35.412872
G01 X20.903595 Y36.840466
G01 X20.903595 Y36.840466
(End50)
(Start48)
G00 X29.703610 Y38.813019
G01 X25.665755 Y38.813019
G01 X25.665755 Y36.794091
G01 X29.703610 Y36.794091
G01 X29.703610 Y38.813019
G01 X29.703610 Y38.813019
(End48)
(Start46)
G00 X37.320965 Y33.985268
G01 X34.465770 Y36.840466
G01 X33.038173 Y35.412872
G01 X35.893368 Y32.557674
G01 X37.320965 Y33.985268
G01 X37.320965 Y33.985268
(End46)
(Start34)
G00 X57.968594 Y3.418691
G01 X57.968594 Y4.995978
G01 X59.987522 Y4.995978
G01 X59.987522 Y9.033834
G01 X57.968594 Y9.033834
G01 X57.968594 Y10.611121
G01 X48.883419 Y10.611121
G01 X48.883419 Y9.033834
G01 X46.864492 Y9.033834
G01 X46.864492 Y4.995978
G01 X48.883419 Y4.995978
G01 X48.883419 Y3.418691
G01 X57.968594 Y3.418691
G01 X57.968594 Y3.418691
(End34)
(Start26)
G00 X105.350317 Y14.585885
G01 X106.927604 Y14.585885
G01 X106.927604 Y12.566957
G01 X110.965460 Y12.566957
G01 X110.965460 Y14.585885
G01 X112.542747 Y14.585885
G01 X112.542747 Y23.671060
G01 X110.965460 Y23.671060
G01 X110.965460 Y25.689988
G01 X106.927604 Y25.689988
G01 X106.927604 Y23.671060
G01 X105.350317 Y23.671060
G01 X105.350317 Y14.585885
G01 X105.350317 Y14.585885
(End26)
(Start30)
G00 X109.451264 Y3.418691
G01 X109.451264 Y4.995978
G01 X111.470192 Y4.995978
G01 X111.470192 Y9.033834
G01 X109.451264 Y9.033834
G01 X109.451264 Y10.611121
G01 X100.366089 Y10.611121
G01 X100.366089 Y9.033834
G01 X98.347161 Y9.033834
G01 X98.347161 Y4.995978
G01 X100.366089 Y4.995978
G01 X100.366089 Y3.418691
G01 X109.451264 Y3.418691
G01 X109.451264 Y3.418691
(End30)
(Footer)
G28
M0
